X: 3020
T: Eau De Luce
N: Pub: J. Walsh, London, 1748
Z: 2012 John Chambers <jc:trillian.mit.edu>
M: C|
L: 1/8
K: F
V: 1
|: ((3Acf) ((3agf) e2f2 | B>cA>B G/G/G G2 | ((3Acf) ((3agf) e2f2 | A>BG>A F/F/F F2 :|
|: ((3Acf) ((3Acf) ((3Bdf) ((3Bdf) | ((3Acf) ((3Acf) a2f2 |\
   ((3Acf) ((3Acf) ((3Bdf) ((3Bdf) | ((3def) ((3ece) f2F2 :|
V: 2 clef=bass middle=d
|: f2F2 c'2a2 | g2f2 c'2c2 | f2a2 g2f2 | c'2c2 f2F2 :|
|: f4 b4 | f4 F4 | f2F2 b2g2 | b2c'2 f2F2 :|
%%begintext align
First Cu. foot it & cast off one Cu. cast up again .|
Gallop down one Cu. up again & cast of [sic] :|
lead thro the 3d Cu. cast up into the 2d Cu.s place .|
foot it & Right & left at top :|:
%%endtext

%%sep 1 1 500
%%sep 1 1 500

